X: 1800
T: Petyas' Polka
C:Greg O'Leary, Maldon, Vic
B: australian traditional tunes wiki
M:2/4
L:1/8
R: Reel
Q: 1/4=100
K:D
V:1 
"D"A,D F>A|BA F>A|BA FA|"A7"E3E/D/|E/F/A c>B|cB A>A|A/A/^G/A/ BA|"D"F4|
"D"A,D F>A|BA F>A|BA FA|"A7"E3B|cc cc/B/|cBA2|AA/B/ A/G/F/E/|"D"D4||
ff f>e|fd A>e|fd Bd|"A7"c3e/f/|gg gg/f/|ge c>f|ge ce|A3c/e/|
"D"ff f>e|fd A>e|ff ga|"G"b3b/a/|bg2e|"D"af2d|"A7"g>e cA|"D"d4||
% abcbook-tune_id 6342d53a8f932dce2abdbf5c


% abcbook-boost 0
% abcbook-tablature 
% abcbook-transpose 
% abcbook-lastupdated 1665324384629
% abcbook-soundfonts 
% abcbook-repeats 1
% NFF Book 2019

